src/images/link.svg

<svg xmlns="http://www.w3.org/2000/svg" viewBox="0 0 460 460" fill="#c3a17b">
    <g>
        <path d="M425.934,0H171.662c-18.122,0-32.864,14.743-32.864,32.864v77.134h30V32.864c0-1.579,1.285-2.864,2.864-2.864h254.272     c1.579,0,2.864,1.285,2.864,2.864v254.272c0,1.58-1.285,2.865-2.864,2.865h-74.729v30h74.729     c18.121,0,32.864-14.743,32.864-32.865V32.864C458.797,14.743,444.055,0,425.934,0z"/>
        <path d="M288.339,139.998H34.068c-18.122,0-32.865,14.743-32.865,32.865v254.272C1.204,445.257,15.946,460,34.068,460h254.272     c18.122,0,32.865-14.743,32.865-32.864V172.863C321.206,154.741,306.461,139.998,288.339,139.998z M288.341,430H34.068     c-1.58,0-2.865-1.285-2.865-2.864V172.863c0-1.58,1.285-2.865,2.865-2.865h254.272c1.58,0,2.865,1.285,2.865,2.865v254.273h0.001     C291.206,428.715,289.92,430,288.341,430z"/>
    </g>
    <g transform="scale(5) translate(-2, 60) rotate(-45)"><path d="M22.5 34H14Q9.75 34 6.875 31.125Q4 28.25 4 24Q4 19.75 6.875 16.875Q9.75 14 14 14H22.5V17H14Q11 17 9 19Q7 21 7 24Q7 27 9 29Q11 31 14 31H22.5ZM16.25 25.5V22.5H31.75V25.5ZM25.5 34V31H34Q37 31 39 29Q41 27 41 24Q41 21 39 19Q37 17 34 17H25.5V14H34Q38.25 14 41.125 16.875Q44 19.75 44 24Q44 28.25 41.125 31.125Q38.25 34 34 34Z"/></g>
</svg>

<svg xmlns="http://www.w3.org/2000/svg" viewBox="0 0 48 48" fill="#e5cdb1">
    <path d="M22.5 34H14q-4.15 0-7.075-2.925T4 24q0-4.15 2.925-7.075T14 14h8.5v3H14q-2.9 0-4.95 2.05Q7 21.1 7 24q0 2.9 2.05 4.95Q11.1 31 14 31h8.5Zm-6.25-8.5v-3h15.5v3ZM25.5 34v-3H34q2.9 0 4.95-2.05Q41 26.9 41 24q0-2.9-2.05-4.95Q36.9 17 34 17h-8.5v-3H34q4.15 0 7.075 2.925T44 24q0 4.15-2.925 7.075T34 34Z"/>
</svg>
